!!!OTL: BRUEDER LAGERT EUCH IM KREISE
!!!ARE: Europa, Mitteleuropa, Deutschland
!!!SCT: F0475
!!!YEM: Copyright 1995, estate of Helmut Schaffrath.
**kern
*ICvox
*Ivox
*M3/4
*k[b-e-]
*B-:
=1
{4f
4b-
4b-
=2
4b-
4g
4g
=3
4ee-
4cc
4a
=4
8cc
8b-
2b-}
=5
{4f
4b-
4b-
=6
4b-
4g
4g
=7
4ee-
8dd
8cc
8b-
8a
=8
8cc
8b-
2b-}
=9
{4.dd
8b-
8ff
8dd
=10
8dd
8cc
2cc}
=11
{4.b-
8dd
8cc
8b-
=12
8b-
8a
2a}
=13
{4.g
8a
8b-
8g
=14
4f
4ee-
4dd
=15
4cc
4b-
4a
=16
2b-
4r}
=17
{4.dd
8b-
8ff
8dd
=18
8dd
8cc
2cc}
=19
{4.b-
8dd
8cc
8b-
=20
8b-
8a
2a}
=21
{4.g
8a
8b-
8g
=22
4f
4ee-
4dd
=23
4cc
4b-
4a
=24
2b-
4r}
==
!!!AGN: Studenten -, Burschenschafts - Lied
!!!ONB: ESAC (Essen Associative Code) Database: FINK
!!!AMT: simple triple
!!!AIN: vox
!!!EED: Helmut Schaffrath
!!!EEV: 1.0
*-
